Adwaita++/emblems/16/emblem-mail.svg

<svg fill="none" height="16" viewBox="0 0 16 16" width="16" xmlns="http://www.w3.org/2000/svg">
  <path d="m13.6 1h-11.2c-.7732 0-1.4.6268-1.4 1.4v11.2c0 .7732.6268 1.4 1.4 1.4h11.2c.7732 0 1.4-.6268 1.4-1.4v-11.2c0-.7732-.6268-1.4-1.4-1.4z" fill="#9a9996"/>
  <path d="m11.3319 8.0131c0-.45997-.0874-.89374-.262-1.30131-.1747-.40757-.4134-.76274-.7162-1.0655-.3028-.30277-.65792-.54149-1.06549-.71616-.40175-.17467-.82969-.26201-1.28384-.26201-.45997 0-.89374.08734-1.30131.26201-.40175.17467-.75401.41339-1.05677.71616-.29694.30276-.53275.65793-.70743 1.0655-.17467.40757-.262.84134-.262 1.30131 0 .45415.08733.8821.262 1.28384.17468.40175.41049.75396.70743 1.05676.30276.3028.65502.5415 1.05677.7162.40757.1746.84134.262 1.30131.262.13391 0 .27656-.0088.42794-.0262.15721-.0233.34353-.067.55896-.131l.39301 1.6244c-.27948.0757-.52984.1281-.75109.1572-.21543.0291-.42504.0437-.62882.0437-.6754 0-1.31587-.1339-1.9214-.4017-.60553-.2679-1.13828-.6289-1.59825-1.083-.45415-.46-.81514-.9898-1.08297-1.58954-.26783-.60553-.40175-1.24308-.40175-1.91266 0-.72198.12518-1.38865.37555-2 .25618-.61718.60553-1.14702 1.04803-1.58952.44833-.44833.97817-.79767 1.58952-1.04803.61135-.25037 1.27511-.37555 1.99127-.37555.71033 0 1.37118.12809 1.98253.38428.6114.25036 1.1383.59971 1.5808 1.04803.4483.44833.7977.97817 1.048 1.58952.2562.61136.3843 1.27511.3843 1.99127 0 .38428-.0466.74527-.1397 1.08297-.0874.3377-.2329.70742-.4367 1.10913h-3.86028v-.1397c-.13392.0699-.26492.1194-.39301.1485-.1281.0233-.23581.0349-.32315.0349-.33188 0-.63464-.0524-.9083-.1572-.26783-.11062-.49781-.26492-.68995-.46288s-.34061-.43086-.44542-.69869c-.1048-.27365-.1572-.57351-.1572-.89956 0-.33188.04949-.63465.14847-.9083.1048-.27365.25327-.50946.44541-.70742s.42213-.34935.68996-.45415c.27365-.11063.57933-.16594.91703-.16594.08734 0 .19505.01456.32315.04367.12809.02329.25909.06696.39301.131v-.39301h1.62448v3.20524h1.0567c.035-.13392.0583-.26201.0699-.38428.0117-.12227.0175-.25036.0175-.38428zm-4.07862.01747c0 .19796.05822.35517.17467.47161.12227.11063.2853.16594.48908.16594.19796 0 .35517-.05531.47162-.16594.11644-.11644.17467-.27365.17467-.47161 0-.20961-.05823-.37264-.17467-.48909-.11645-.11644-.27366-.17467-.47162-.17467-.20378 0-.36681.05823-.48908.17467-.11645.11645-.17467.27948-.17467.48909z" fill="#f6f5f4"/>
</svg>

<svg xmlns="http://www.w3.org/2000/svg" fill="none" width="16" height="16" viewBox="0 0 16 16">
 <path fill="url(#paint0_linear)" d="M13.6 1H2.4C1.6268 1 1 1.6268 1 2.4V13.6C1 14.3732 1.6268 15 2.4 15H13.6C14.3732 15 15 14.3732 15 13.6V2.4C15 1.6268 14.3732 1 13.6 1Z"/>
 <path fill="url(#paint1_linear)" d="M11.3319 8.0131C11.3319 7.55313 11.2445 7.11936 11.0699 6.71179C10.8952 6.30422 10.6565 5.94905 10.3537 5.64629C10.0509 5.34352 9.69578 5.1048 9.28821 4.93013C8.88646 4.75546 8.45852 4.66812 8.00437 4.66812C7.5444 4.66812 7.11063 4.75546 6.70306 4.93013C6.30131 5.1048 5.94905 5.34352 5.64629 5.64629C5.34935 5.94905 5.11354 6.30422 4.93886 6.71179C4.76419 7.11936 4.67686 7.55313 4.67686 8.0131C4.67686 8.46725 4.76419 8.8952 4.93886 9.29694C5.11354 9.69869 5.34935 10.0509 5.64629 10.3537C5.94905 10.6565 6.30131 10.8952 6.70306 11.0699C7.11063 11.2445 7.5444 11.3319 8.00437 11.3319C8.13828 11.3319 8.28093 11.3231 8.43231 11.3057C8.58952 11.2824 8.77584 11.2387 8.99127 11.1747L9.38428 12.7991C9.1048 12.8748 8.85444 12.9272 8.63319 12.9563C8.41776 12.9854 8.20815 13 8.00437 13C7.32897 13 6.6885 12.8661 6.08297 12.5983C5.47744 12.3304 4.94469 11.9694 4.48472 11.5153C4.03057 11.0553 3.66958 10.5255 3.40175 9.92576C3.13392 9.32023 3 8.68268 3 8.0131C3 7.29112 3.12518 6.62445 3.37555 6.0131C3.63173 5.39592 3.98108 4.86608 4.42358 4.42358C4.87191 3.97525 5.40175 3.62591 6.0131 3.37555C6.62445 3.12518 7.28821 3 8.00437 3C8.7147 3 9.37555 3.12809 9.9869 3.38428C10.5983 3.63464 11.1252 3.98399 11.5677 4.43231C12.016 4.88064 12.3654 5.41048 12.6157 6.02183C12.8719 6.63319 13 7.29694 13 8.0131C13 8.39738 12.9534 8.75837 12.8603 9.09607C12.7729 9.43377 12.6274 9.80349 12.4236 10.2052H8.56332V10.0655C8.4294 10.1354 8.2984 10.1849 8.17031 10.214C8.04221 10.2373 7.9345 10.2489 7.84716 10.2489C7.51528 10.2489 7.21252 10.1965 6.93886 10.0917C6.67103 9.98108 6.44105 9.82678 6.24891 9.62882C6.05677 9.43086 5.9083 9.19796 5.80349 8.93013C5.69869 8.65648 5.64629 8.35662 5.64629 8.03057C5.64629 7.69869 5.69578 7.39592 5.79476 7.12227C5.89956 6.84862 6.04803 6.61281 6.24017 6.41485C6.43231 6.21689 6.6623 6.0655 6.93013 5.9607C7.20378 5.85007 7.50946 5.79476 7.84716 5.79476C7.9345 5.79476 8.04221 5.80932 8.17031 5.83843C8.2984 5.86172 8.4294 5.90539 8.56332 5.96943V5.57642H10.1878V8.78166H11.2445C11.2795 8.64774 11.3028 8.51965 11.3144 8.39738C11.3261 8.27511 11.3319 8.14702 11.3319 8.0131ZM7.25328 8.03057C7.25328 8.22853 7.3115 8.38574 7.42795 8.50218C7.55022 8.61281 7.71325 8.66812 7.91703 8.66812C8.11499 8.66812 8.2722 8.61281 8.38865 8.50218C8.50509 8.38574 8.56332 8.22853 8.56332 8.03057C8.56332 7.82096 8.50509 7.65793 8.38865 7.54148C8.2722 7.42504 8.11499 7.36681 7.91703 7.36681C7.71325 7.36681 7.55022 7.42504 7.42795 7.54148C7.3115 7.65793 7.25328 7.82096 7.25328 8.03057Z"/>
 <defs>
  <linearGradient id="paint0_linear" x1="1" x2="15" y1="8" y2="8" gradientUnits="userSpaceOnUse">
   <stop stop-color="#9A9996"/>
  </linearGradient>
  <linearGradient id="paint1_linear" x1="3" x2="13" y1="8" y2="8" gradientUnits="userSpaceOnUse">
   <stop stop-color="#F6F5F4"/>
  </linearGradient>
 </defs>
</svg>
